X: 21451
T: Kevin McHugh's
R: jig
M: 6/8
K: Gmajor
B3 BAB|GBB BAG|F2A AFD|
DFA AFD|G2B BAB|GBB BAB|
def gdB|1 GAG GAc:|2 GAG G2a||
|:aba age|~g3 gfe|dBd gdB|
ABA A2a|aba age|~g3 gfe|
dBd gdB|1 GAG G2a:|2 GAG GAc||

